X: 51
T:Kershaw's Hornpipe
M:4/4
L:1/8
S:Anne Gilchrist's 1910 Trnscptn of Joseph Kershaw's 1820 Ms
Z:Johnny Adams - Village Music Project
K:D
(3ABc | dfdf ecAc | dBGB AFDF |  GBAc Bged | c2 A2 A2 (3ABc | dA A2 eA
A 2 | fefg aAAc | BdGB AFGE | D2 D2 D2 :||: (3ABc| dAdA FDFA | BGDG
BGdB | gefd ecdB | Afed cBAG | Fd d2 Ge e2| Af f2 Bg g2 | fafd Bgec | 
d2 d2 d2 : |


